X:1
T:Psalm 146 (Cheshire tune)
T:Psalm 146 (Cheshire tune)
T:John Farmer
C:John Farmer
%%score [ 1 2 3 4 ]
L:1/8
Q:1/4=120
M:2/2
K:C
V:1 treble nm="Soprano" snm="S"
V:2 treble nm="Alto" snm="A"
V:3 treble-8 nm="Tenor" snm="T"
V:4 bass nm="Bass" snm="B"
V:1
 A4 c2 B2 | A2 A2 A2 ^G2 | A4 z2 A2 | AB c4 B2 | c4 z2 c2 | c3 c B2 d2 | c2 A2 ^G4 | z2 c2 B2 A2 | %8
w: 1)My soul praise|thou the Lord al-|ways, my|God I will con-|fess, while|breath and live pro-|long my days,|my tongue no|
w: 3)Trust not in|worldl- ly Prin- ces|then, tough|they a- bond in|wealth: nor|in the sonnes of|mor- tal men,|in whone there|
w: 4)For why their|breath doth soone de-|part to|earth an- one they|fall: and|then the coun- sels|of their harts,|de- cay and|
 A2 ^G2 !fermata!A4 |] %9
w: time shall cease.|
w: is no health.|
w: pe- rish all.|
V:2
 E4 E2 E2 | E2 E2 E3 D | ^C4 z2 F2 | E2 (EF) G2 D2 | G4 z2 G2 | G3 G G2 G2 | E2 A,2 B,4 | %7
w: 1)My soul praise|thou the lord al-|ways, my|God I _ will con-|fess, while|breath and live pro-|long my days,|
w: 3)Trust not in|world- ly Prin- ces|then, tough|they a- * bond in|wealth: nor|in the sonnes of|mor- tal men,|
w: 4)For why their|breath doth soone de-|part to|earth an- * one they|fall: and|then the coun- cels|of their harts,|
 z2 G2 G2 E2 | F2 (ED) !fermata!^C4 |] %9
w: my tongue no|time shall _ cease.|
w: in whone there|is no _ health.|
w: de- cay and|pe- rish _ all.|
V:3
 A4 A2 B2 | c2 c2 B3 B | A4 z2 A2 | c3 c d2 g2 | e4 z2 e2 | e3 e d2 B2 | c2 d2 e4 | z2 e2 d2 c2 | %8
w: 1)My soul praise|thou the Lord al-|ways, my|God I will con-|fess, while|breath and live pro-|long my days,|my tongue no|
w: 3)Trust not in|world- ly Prin- ces|then, tough|they a- bond in|wealth: nor|in the sonnes of|mor- tal men,|in whone there|
w: 4)For why their-|breath doth soone de-|part to|earth an- one they|fall: and|then the coun- cels|of their harts,|de- cay and|
 d2 B2 !fermata!A4 |] %9
w: time shall cease.|
w: is no health.|
w: pe- rish all.|
V:4
 A,,4 A,2 ^G,2 | A,2 A,,2 E,2 E,2 | A,,4 z2 D,2 | A,3 A, G,2 G,2 | C,4 z2 C,2 | C3 C G,2 G,2 | %6
w: 1)My soul praise|thou the Lord al-|ways, my|God I will con-|fess, while|breath and live pro-|
w: 3)Trust not in|world- ly Prin- ces|then, tuogh|they a- bond in|wealth: nor|in the sonnes of|
w: 4)For why their|breath doth soone de-|part to|earth an- one they|fall: and|then the coun- cels|
 A,2 F,2 E,4 | z2 C,2 G,2 A,2 | D,2 E,2 !fermata!A,,4 |] %9
w: long my days,|my tongue no|time shall cease.|
w: mor- tal men,|in whone there|is no health.|
w: of thei harts,|de- cay and|pe- rish all.|

